src/lib/packages/icons/src/assets/filled/file-export-alt.svg

<svg xmlns="http://www.w3.org/2000/svg" width="24" height="24" fill="none"><path fill="currentColor" d="M13 16.75h5V18c0 2-1 3-3 3H6c-2 0-3-1-3-3V6c0-2 1-3 3-3h5.25v3c0 2.42 1.33 3.75 3.75 3.75h3v5.5h-5a.75.75 0 0 0 0 1.5Zm2-8.5h2.25l-4.5-4.5V6c0 1.58.67 2.25 2.25 2.25Zm7.692 7.463a.749.749 0 0 0-.162-.244l-2-2a.75.75 0 1 0-1.061 1.061l.72.72H18v1.5h2.189l-.72.72a.75.75 0 0 0 1.06 1.061l2-2a.747.747 0 0 0 .163-.818Z"/></svg>

<svg width="24" height="24" viewBox="0 0 24 24" fill="none" xmlns="http://www.w3.org/2000/svg">
<path d="M13 16.75H18V18C18 20 17 21 15 21H6C4 21 3 20 3 18V6C3 4 4 3 6 3H11.25V6C11.25 8.42 12.58 9.75 15 9.75H18V15.25H13C12.586 15.25 12.25 15.586 12.25 16C12.25 16.414 12.586 16.75 13 16.75ZM15 8.25H17.25L12.75 3.75V6C12.75 7.58 13.42 8.25 15 8.25ZM22.6919 15.713C22.6539 15.621 22.599 15.538 22.53 15.469L20.53 13.469C20.237 13.176 19.762 13.176 19.469 13.469C19.176 13.762 19.176 14.237 19.469 14.53L20.189 15.25H18V16.75H20.189L19.469 17.47C19.176 17.763 19.176 18.238 19.469 18.531C19.615 18.677 19.807 18.751 19.999 18.751C20.191 18.751 20.3831 18.678 20.5291 18.531L22.5291 16.531C22.5981 16.462 22.6529 16.379 22.6909 16.287C22.7679 16.103 22.7679 15.897 22.6919 15.713Z" fill="currentColor"/>
</svg>
